azure-patterns/svg-currency-graph.svg

<svg xmlns="http://www.w3.org/2000/svg" viewBox="0 0 49 49">
                                
                            
<path d="M23.0302 13.5427H12.9165V36.2207H23.0302V13.5427Z" fill="#0078D4"></path>
<path d="M35.6535 6.09003H25.5566V36.3048H35.6535V6.09003Z" fill="#0078D4"></path>
<path d="M48.2683 0.927979H38.2051V36.3217H48.2767V0.927979H48.2683Z" fill="#0078D4"></path>
<path d="M10.3566 21.3538H0.293457V36.3217H10.3482V21.3538H10.3566Z" fill="#0078D4"></path>
<path d="M48.2768 38.7891H8.15039V41.307H48.2697V38.7891H48.2768Z" fill="#0078D7"></path>
<path d="M11.6789 48.9196C17.9357 48.9196 23.0052 43.8501 23.0052 37.5932C23.0052 31.3364 17.9357 26.2669 11.6789 26.2669C5.42202 26.2669 0.352539 31.3364 0.352539 37.5932C0.352539 43.8501 5.42202 48.9196 11.6789 48.9196Z" fill="#50E6FF"></path>
<path d="M14.643 37.7785C14.1715 37.2816 13.3883 36.8353 12.2851 36.4311V33.6016C13.1609 33.7195 13.9441 33.9637 14.643 34.3932V32.3722C14.1209 32.0774 13.3378 31.9006 12.2851 31.8501V30.4858H11.182V31.8753C10.3062 31.9427 9.56513 32.2543 9.00934 32.8185C8.44513 33.3827 8.15039 34.048 8.15039 34.8395C8.15039 35.6311 8.37776 36.2459 8.84934 36.7427C9.29566 37.2311 10.0788 37.6859 11.182 38.0816V40.8017C10.7357 40.7764 10.2136 40.6417 9.64092 40.4395C9.0346 40.2206 8.60513 40.0185 8.33565 39.7911V41.8543C9.1946 42.309 10.1293 42.5532 11.1651 42.5532V44.1196H12.2683V42.5111C13.2788 42.3932 14.0367 42.0817 14.5588 41.5848C15.0725 41.0964 15.342 40.4143 15.342 39.589C15.342 38.8564 15.1146 38.2501 14.643 37.7785ZM11.182 35.9848C10.4914 35.6395 10.1462 35.2185 10.1462 34.6795C10.1462 34.0985 10.4914 33.7364 11.182 33.6016V35.9848ZM12.2683 40.7848V38.5195C12.9841 38.8395 13.3462 39.2101 13.3462 39.7069C13.3462 40.288 12.9841 40.6501 12.2683 40.7848Z" fill="#0078D4"></path>
</svg>

<svg xmlns="http://www.w3.org/2000/svg" viewBox="0 0 49 49"><path d="M23.03 13.543H12.916V36.22H23.03V13.543zM35.654 6.09H25.556v30.215h10.097V6.09zM48.268.928H38.205v35.394h10.072V.928h-.009zM10.357 21.354H.293v14.968h10.055V21.354h.009z" fill="#0078D4"/><path d="M48.277 38.79H8.15v2.517h40.12v-2.518h.007z" fill="#0078D7"/><path d="M11.679 48.92c6.257 0 11.326-5.07 11.326-11.327s-5.07-11.326-11.326-11.326c-6.257 0-11.326 5.07-11.326 11.326 0 6.257 5.069 11.327 11.326 11.327z" fill="#50E6FF"/><path d="M14.643 37.779c-.472-.497-1.255-.944-2.358-1.348v-2.83c.876.118 1.66.363 2.358.792v-2.02c-.522-.296-1.305-.472-2.358-.523v-1.364h-1.103v1.39c-.876.067-1.617.378-2.173.942-.564.565-.859 1.23-.859 2.022 0 .791.228 1.406.7 1.903.446.488 1.229.943 2.332 1.339v2.72c-.446-.026-.968-.16-1.541-.362-.606-.22-1.036-.421-1.305-.649v2.063a5.941 5.941 0 0 0 2.83.7v1.566h1.102V42.51c1.01-.118 1.769-.43 2.29-.926.514-.489.784-1.17.784-1.996 0-.733-.227-1.339-.699-1.81zm-3.461-1.794c-.69-.346-1.036-.767-1.036-1.306 0-.58.345-.943 1.036-1.077v2.383zm1.086 4.8V38.52c.716.32 1.078.69 1.078 1.187 0 .581-.362.943-1.078 1.078z" fill="#0078D4"/></svg>
